app/dist/common/images/japan-aviation-electronics-ltd.svg

<svg height="18" viewBox="0 0 18 18" width="18" xmlns="http://www.w3.org/2000/svg"><path d="m0 0h18v18h-18z" fill="#f0f3fa"/><path d="m3 5h12v1h-12zm0 7h12v1h-12z" fill="#0077bc"/><g fill="#1c1616"><path d="m6 7v3.06c0 .3-.16.54-.35.54h-1.3c-.2 0-.35-.24-.35-.54v-1.06h-1v1.03c0 .54.29.97.64.97h2.72c.35 0 .64-.43.64-.97v-2.56c0-.15.08-.27.18-.27h.4v-.2z"/><path d="m10.22 7h-1.82l-1.4 4h1l.35-1h1.3l.35 1h1l-1.25-3.33c-.06-.16.01-.45.13-.45h.34zm-.7 2.6-.52-1.48-.51 1.48h1.01z" fill-rule="evenodd"/><path d="m11 7h4v.2h-.46c-.09 0-.16.03-.16.15v.05h-2.38v1.6h2.38v.4h-2.38v1.2h3v.4h-4z"/></g></svg>

<!-- by TradingView --><svg width="18" height="18" viewBox="0 0 18 18" xmlns="http://www.w3.org/2000/svg"><path fill="#F0F3FA" d="M0 0h18v18H0z"/><path fill="#0077BC" d="M3 5h12v1H3zM3 12h12v1H3z"/><path d="M6 7v3.06c0 .3-.16.54-.35.54h-1.3c-.2 0-.35-.24-.35-.54V9H3v1.03c0 .54.29.97.64.97h2.72c.35 0 .64-.43.64-.97V7.47c0-.15.08-.27.18-.27h.4V7H6Z" fill="#1C1616"/><path fill-rule="evenodd" d="M10.22 7H8.4L7 11h1l.35-1h1.3l.35 1h1L9.75 7.67c-.06-.16.01-.45.13-.45h.34V7Zm-.7 2.6L9 8.12 8.49 9.6H9.5Z" fill="#1C1616"/><path d="M11 7h4v.2h-.46c-.09 0-.16.03-.16.15v.05H12V9h2.38v.4H12v1.2h3v.4h-4V7Z" fill="#1C1616"/></svg>
